icons/op-enterprise-badge-24.svg

<svg width="24" height="24" viewBox="0 0 24 24" fill="none" xmlns="http://www.w3.org/2000/svg">
<path d="M18 10.0952C18 6.72762 15.315 4 12 4C8.685 4 6 6.72762 6 10.0952C6 11.6419 6.57 13.0438 7.5 14.1181V20L12 18.4762L16.5 20V14.1181C17.4671 13.0084 18.0007 11.5773 18 10.0952ZM12 5.52381C14.4825 5.52381 16.5 7.57333 16.5 10.0952C16.5 12.6171 14.4825 14.6667 12 14.6667C9.5175 14.6667 7.5 12.6171 7.5 10.0952C7.5 7.57333 9.5175 5.52381 12 5.52381Z" fill="black"/>
<path d="M13.549 12.1497L13.5456 12.701H10.549V7.70099H13.5456V8.25228H11.2073V9.91313H13.101V10.4435H11.2073V12.1497H13.549Z" fill="black"/>
</svg>

<svg xmlns="http://www.w3.org/2000/svg" width="24" height="24" viewBox="0 0 24 24"><path d="M18 10.095C18 6.728 15.315 4 12 4s-6 2.728-6 6.095a6.12 6.12 0 0 0 1.5 4.023V20l4.5-1.524L16.5 20v-5.882a6.12 6.12 0 0 0 1.5-4.023Zm-6-4.571c2.482 0 4.5 2.049 4.5 4.571s-2.018 4.572-4.5 4.572-4.5-2.05-4.5-4.572c0-2.522 2.018-4.571 4.5-4.571Z"/><path d="m13.549 12.15-.003.551h-2.997v-5h2.997v.551h-2.339v1.661h1.894v.531h-1.894v1.706h2.342Z"/></svg>
